packages/icons/src/card-left-arrow.svg

<svg width="24" height="24" viewBox="0 0 24 24" fill="none" xmlns="http://www.w3.org/2000/svg">
<path fill-rule="evenodd" clip-rule="evenodd" d="M17.5 13.4645L18.9142 14.8787L17.7925 15.9995L22 16V18L17.7925 17.9995L18.9142 19.1213L17.5 20.5355L13.9645 17L17.5 13.4645ZM20 4C21.0544 4 21.9182 4.81588 21.9945 5.85074L22 6V13H20V11H4V18H12V20H4C2.94564 20 2.08183 19.1841 2.00549 18.1493L2 18V6C2 4.94564 2.81588 4.08183 3.85074 4.00549L4 4H20ZM10 13V15H6V13H10ZM20 6H4V9H20V6Z" fill="black"/>
</svg>

<svg xmlns="http://www.w3.org/2000/svg" width="24" height="24" fill="none" viewBox="0 0 24 24">
  <path fill="#000" fill-rule="evenodd" d="m17.5 13.464 1.414 1.415-1.122 1.12L22 16v2h-4.207l1.121 1.121-1.414 1.415L13.964 17l3.536-3.536ZM20 4a2 2 0 0 1 1.994 1.85L22 6v7h-2v-2H4v7h8v2H4a2 2 0 0 1-1.995-1.85L2 18V6a2 2 0 0 1 1.85-1.995L4 4h16Zm-10 9v2H6v-2h4Zm10-7H4v3h16V6Z" clip-rule="evenodd"/>
</svg>
